dist/svgs/unicons/line/align-center-justify.svg

<svg xmlns="http://www.w3.org/2000/svg" viewBox="0 0 24 24"><path d="M21 15H3a1 1 0 000 2h18a1 1 0 000-2zM3 5h18a1 1 0 000-2H3a1 1 0 000 2zm14 14H7a1 1 0 000 2h10a1 1 0 000-2zm4-12H3a1 1 0 000 2h18a1 1 0 000-2zm0 4H3a1 1 0 000 2h18a1 1 0 000-2z"/></svg>

<svg xmlns="http://www.w3.org/2000/svg" viewBox="0 0 24 24"><path d="M21,15H3a1,1,0,0,0,0,2H21a1,1,0,0,0,0-2ZM3,5H21a1,1,0,0,0,0-2H3A1,1,0,0,0,3,5ZM17,19H7a1,1,0,0,0,0,2H17a1,1,0,0,0,0-2ZM21,7H3A1,1,0,0,0,3,9H21a1,1,0,0,0,0-2Zm0,4H3a1,1,0,0,0,0,2H21a1,1,0,0,0,0-2Z"/></svg>
